svg/u1f329.svg

<svg viewBox="0 0 128 128" xmlns="http://www.w3.org/2000/svg">
  <path d="M79.83,71.24L57,75.21c0,0-7.6,19.36-8.07,20.67c-0.47,1.31-0.45,3.38,1.62,3.38 c2.63,0,15.98-0.07,15.98-0.07s-3.24,15.63-3.43,17.03s1.31,2.63,2.63,1.22c1.31-1.41,19.51-24.79,20.3-25.93 c1.41-2.04,0.05-3.92-1.55-4.01c-1.6-0.09-12.32,0.14-12.32,0.14L79.83,71.24z" fill="#FECA18"/>
  <path d="M73.71,75.04c0,0-5.09,11.26-5.28,11.9c-0.56,1.9,1.9,2.67,2.6,1.13c0.7-1.55,6.76-14.08,6.76-14.08 L73.71,75.04z" fill="#FDB900"/>
  <path d="M50.83,96.3c1.34-0.04,13.1-0.07,14.08-0.14c1.83-0.14,2.11,2.39,0,2.39 c-2.19,0-13.73,0.04-14.43,0.07C48.86,98.7,48.65,96.37,50.83,96.3z" fill="#FDB900"/>
  <path d="M59.98,75.96c0,0-6,15.06-6.34,16.19c-1.41,4.72,3.66,4.58,5,1.9c0.66-1.33,7.11-14.99,7.39-17.46 C66.32,74.13,59.98,75.96,59.98,75.96z" fill="#FFE36A"/>
  <path d="M62.52,91.16c-0.86-0.59-1.9-0.07-2.53,0.92c-0.63,0.99-1.55,2.6-0.14,3.45 c1.27,0.76,2.39-0.77,2.89-1.48C63.22,93.35,63.85,92.08,62.52,91.16z" fill="#FFE36A"/>
  <path d="M72.09,94.4c-2.29-0.49-3.03,1.41-3.52,3.66c-0.49,2.25-2.33,9.53-2.67,11.33 c-0.49,2.53,1.83,2.89,2.82,0.56c0.74-1.74,3.95-9.59,4.36-10.84C73.71,97.22,74.41,94.89,72.09,94.4z" fill="#FFE36A"/>
  <path d="M107.35,50.2c0,0,1.29-34.78-27.45-39C53.01,7.26,48.23,32.6,48.23,32.6s-11.68-2.67-18.02,4.79 s-6.48,13.23-6.48,13.23S6.13,48.93,4.58,63.29s11.54,8.45,11.54,8.45l107.13-4.72c0,0,2.95-8.03-4.65-13.73 C114.11,49.92,107.35,50.2,107.35,50.2z" fill="#E4EAEE"/>
  <radialGradient id="SVGID_1_" cx="65.4266" cy="79.054" fx="52.312" fy="79.1802" gradientTransform="matrix(0.0288 -0.9996 1.4975 0.0432 -54.843 141.0385)" gradientUnits="userSpaceOnUse" r="29.2943">
    <stop offset="0.1934" stop-color="#FFE366"/>
    <stop offset="0.3305" stop-color="#EDDD82"/>
    <stop offset="0.5709" stop-color="#D0D4AD"/>
    <stop offset="0.7589" stop-color="#BFCFC7"/>
    <stop offset="0.8699" stop-color="#B8CDD1"/>
  </radialGradient>
  <path d="M58.78,55.69c0.84-0.28,6.05,4.22,19.85,3.8s26.61-7.32,26.61-7.32s-0.7,4.93-2.25,7.32 s-4.22,5.21-4.22,5.21s7.18,1.69,13.66,0.84c6.48-0.84,11.26-3.94,11.26-3.94s0.84,3.24,0.28,6.34c-0.72,3.97-4.22,6.9-7.18,7.32 s-29.56,1.76-39.98,2.11c-8.45,0.29-56.63,0.68-61.52,0.14c-5.07-0.56-8.87-2.82-10.28-7.18c-1.07-3.31-0.56-5.35-0.56-5.35 s6.36,2.73,11.54,1.83c6.48-1.13,10-6.19,10-6.19s6.34,3.24,15.49,2.11C50.62,61.6,58.78,55.69,58.78,55.69z" fill="url(#SVGID_1_)"/>
</svg>

<svg viewBox="0 0 128 128" xmlns="http://www.w3.org/2000/svg">
  <defs>
    <radialGradient id="SVGID_1_" cx="-77.132597" cy="45.172668" fx="-90.247197" fy="45.298868" gradientTransform="matrix(0.0288 -0.9996 1.4975 0.0432 0 0)" gradientUnits="userSpaceOnUse" r="29.2943">
      <stop offset="0.1934" stop-color="#FFE366"/>
      <stop offset="0.3305" stop-color="#EDDD82"/>
      <stop offset="0.5709" stop-color="#D0D4AD"/>
      <stop offset="0.7589" stop-color="#BFCFC7"/>
      <stop offset="0.8699" stop-color="#B8CDD1"/>
    </radialGradient>
  </defs>
  <path d="M79.83,71.24 L57,75.21 C57,75.21 49.4,94.57 48.93,95.88 C48.46,97.19 48.48,99.26 50.55,99.26 C53.18,99.26 66.53,99.19 66.53,99.19 C66.53,99.19 63.29,114.82 63.1,116.22 C62.91,117.62 64.41,118.85 65.73,117.44 C67.04,116.03 85.24,92.65 86.03,91.51 C87.44,89.47 86.08,87.59 84.48,87.5 C82.88,87.41 72.16,87.64 72.16,87.64 L79.83,71.24 Z" fill="#FECA18"/>
  <path d="M73.71,75.04 C73.71,75.04 68.62,86.3 68.43,86.94 C67.87,88.84 70.33,89.61 71.03,88.07 C71.73,86.52 77.79,73.99 77.79,73.99 L73.71,75.04 Z" fill="#FDB900"/>
  <path d="M50.83,96.3 C52.17,96.26 63.93,96.23 64.91,96.16 C66.74,96.02 67.02,98.55 64.91,98.55 C62.72,98.55 51.18,98.59 50.48,98.62 C48.86,98.7 48.65,96.37 50.83,96.3 Z" fill="#FDB900"/>
  <path d="M59.98,75.96 C59.98,75.96 53.98,91.02 53.64,92.15 C52.23,96.87 57.3,96.73 58.64,94.05 C59.3,92.72 65.75,79.06 66.03,76.59 C66.32,74.13 59.98,75.96 59.98,75.96 Z" fill="#FFE36A"/>
  <path d="M62.52,91.16 C61.66,90.57 60.62,91.09 59.99,92.08 C59.36,93.07 58.44,94.68 59.85,95.53 C61.12,96.29 62.24,94.76 62.74,94.05 C63.22,93.35 63.85,92.08 62.52,91.16 Z" fill="#FFE36A"/>
  <path d="M72.09,94.4 C69.8,93.91 69.06,95.81 68.57,98.06 C68.08,100.31 66.24,107.59 65.9,109.39 C65.41,111.92 67.73,112.28 68.72,109.95 C69.46,108.21 72.67,100.36 73.08,99.11 C73.71,97.22 74.41,94.89 72.09,94.4 Z" fill="#FFE36A"/>
  <path d="M107.35,50.2 C107.35,50.2 108.64,15.42 79.9,11.2 C53.01,7.26 48.23,32.6 48.23,32.6 C48.23,32.6 36.55,29.93 30.21,37.39 C23.87,44.85 23.73,50.62 23.73,50.62 C23.73,50.62 6.13,48.93 4.58,63.29 C3.03,77.65 16.12,71.74 16.12,71.74 L123.25,67.02 C123.25,67.02 126.2,58.99 118.6,53.29 C114.11,49.92 107.35,50.2 107.35,50.2 Z" fill="#E4EAEE"/>
  <path d="M58.78,55.69 C59.62,55.41 64.83,59.91 78.63,59.49 C92.43,59.07 105.24,52.17 105.24,52.17 C105.24,52.17 104.54,57.1 102.99,59.49 C101.44,61.88 98.77,64.7 98.77,64.7 C98.77,64.7 105.95,66.39 112.43,65.54 C118.91,64.7 123.69,61.6 123.69,61.6 C123.69,61.6 124.53,64.84 123.97,67.94 C123.25,71.91 119.75,74.84 116.79,75.26 C113.83,75.68 87.23,77.02 76.81,77.37 C68.36,77.66 20.18,78.05 15.29,77.51 C10.22,76.95 6.42,74.69 5.01,70.33 C3.94,67.02 4.45,64.98 4.45,64.98 C4.45,64.98 10.81,67.71 15.99,66.81 C22.47,65.68 25.99,60.62 25.99,60.62 C25.99,60.62 32.33,63.86 41.48,62.73 C50.62,61.6 58.78,55.69 58.78,55.69 Z" fill="url(#SVGID_1_)"/>
</svg>
